X:1
T:St. Catherine's Court
T:Richard Strutt
T:St. Catherine's Court
T:Copyright © CPDL
T:Copyright © CPDL
C:Richard Strutt
Z:Copyright © CPDL
%%score [ ( 1 2 ) ( 3 4 ) ]
L:1/8
M:3/4
K:Db
V:1 treble nm="P1"
V:2 treble 
V:3 bass nm="P2"
V:4 bass 
V:1
"^Editor:  John Henry Fowler""^Revision:  ( 1 - 3 - 2008 )" DE | F2 D2 E2 | %2
"^Lyrics:  William Draper ( 1855 - 1933 )" F2"^from Üttingen manuscript, 1754" D2 E2 | F2 G2 A2 | %4
 B2 A2 Bc |"^( 1848 - 1927 )" d2 F2 B2 | A2 C2 D2 | E2 E2 F2 | E4 DE | F2 D2 E2 | F2 =A2 B2 | %11
 c2 d2 e2 | e2 d2 cB | A2 B2 d2 | d2 D2 A2 | GF E3 D | D6 |] %17
V:2
 DA, | D2 A,2 A,2 | D2 D2 A,2 | A,2 D2 D2 | D2 D2 FF | F2 F2 D2 | D2 C2 A,2 | B,2 B,2 D2 | C4 DA, | %9
w: 1:~~In our|day of thanks-|giv- ing one|psalm let us|of- fer for the|saints who be-|\-~fore us have|found their re-|ward; When the|
 D2 D2 B,2 | C2 F2 F2 | F2 F2 G2 | G2 F2 AG | F2 =E2 E2 | F2 D2 D2 | ED (D2 C)D | D6 |] %17
w: sha- dow of|death fell up-|\-~on them, we|sor- rowed, but _|now we re-|joice that they|rest _ in _ the|Lord.|
V:3
 F,G, | A,2 F,2 G,2 | A,2 B,2 C2 | D2 G,2 F,2 | G,2 F,2 DD | D2 C2 B,2 | D2 A,2 A,2 | %7
 A,2 =G,2 G,2 | A,4 F,G, | A,2 B,2 B,2 | =A,2 C2 D2 | %11
 =A,2 B,2"^Hymn Tune:  Richard Strutt; written for the Jubilee Celebration of the Girls’ Friendly Society, 1925,                                    and first published in their Jubilee Hymn Book that year""^Words: William H. Draper, 1894. Draper wrote this hymn for the reopening of the                      Abbey Church, Shrewsbury, England, after its restoration." C2 | %12
 C2 D2 DD | E2 D2 B,2 | A,2 F,2 A,2 | B,2 E,F, G,2 | F,6 |] %17
V:4
 D,D, | D,2 D,2 D,2 | D,2 B,,2 A,,2 | D,C, B,,2 A,,2 | G,,2 D,2 B,B, | B,2 A,2 G,2 | F,2 G,2 F,2 | %7
 E,2 E,2 E,2 | A,,4 D,D, | D,C, B,,2 G,2 | F,2 E,2 D,2 | C,2 B,,2 =A,,2 | B,,2 B,,2 G,G, | %13
 A,2 =G,2 G,2 | A,2 B,,2 F,,2 | G,,2 A,,2 A,,2 | D,6 |] %17

